X:1     %Music
T:Come all you True Good Christians
B:Cecil Sharp's Collection of English Folk Songs, Vol 2, p 449, No 350, ed Maud Karpeles , Oxford University Press, 1974
S:Henry Thomas (76) at Chipping Sodbury, Gloucestershire, 3 April 1907
Z:Cecil Sharp
F:http://www.folkinfo.org/songs
M:4/4     %Meter
L:1/8     %
K:G
D2 |G3 F G2 e2 |d3 c B2       
w:Come all you true good Chris-ti-ans      
(cA) |G2 G2 F2 (AB) |G6 
w: That_liv-eth here on_ earth.
D2 |E3 F G2 e2 | (d3 c) B2
w:O sa-lu-tate the morn--ing
cA |G3 E F2 (AB) |G6
w:Of our bless-ed Sa-viour's_ birth           
c2 |B3 A G2 c2 |(B3 A) G2                     
w:This is the hap-py morn--ing, 
B2 |c3 B c2 e2 | d6 
w:This is the bless-ed morn
   D2 |G3 F G2 e2 |(d3 c) B2       
w:To save us from all ru--in     
(cA) |G2 G2 F2 (AB) | G6 |]
w:The_ Son of God was_ born.